X:315
T: Maid I Ne'er Forgot
S: "Treoir"
Z: B.Black
M: 4/4
L: 1/8
R: reel
K: Edor
D | E3 F G3 A | B2 ec dBAd | BGEF G2 (3ABc | dAec dBAF |
E3 F G3 A | B2 ec dBAd | BGEF GABc | dBAF GE E3 :|
D | B3 d e3 f | (3gfe fd edBA | BGEF GABc | d2 AG FGAF |
E2 BE dEBE | dBec dBAd | BGEF GABc | dBAF GE E3 :|
